clients/portal/components/icon/svgs/logout.svg

<svg xmlns="http://www.w3.org/2000/svg" height="24" viewBox="0 0 24 24" width="24"><path d="M0 0h24v24H0z" fill="currentColor"/><path d="M17 7l-1.41 1.41L18.17 11H8v2h10.17l-2.58 2.58L17 17l5-5zM4 5h8V3H4c-1.1 0-2 .9-2 2v14c0 1.1.9 2 2 2h8v-2H4V5z"/></svg>

<svg width="24" height="24" viewBox="0 0 24 24" fill="none" xmlns="http://www.w3.org/2000/svg">
<path d="M17 7L15.59 8.41L18.17 11H8V13H18.17L15.59 15.58L17 17L22 12L17 7ZM4 5H12V3H4C2.9 3 2 3.9 2 5V19C2 20.1 2.9 21 4 21H12V19H4V5Z" fill="#475569"/>
</svg>
